public/images/icons/Docker.svg

<svg width="198" height="142" viewBox="0 0 198 142" fill="none" xmlns="http://www.w3.org/2000/svg">
<path d="M88.8171 0C89.265 0 89.701 0 90.1253 0H106.213C106.59 0.0473333 106.967 0.0473333 107.344 0L107.698 17.253C107.721 18.7913 106.967 19.5487 105.435 19.525H90.7971C89.3357 19.525 88.5107 18.8032 88.3221 17.3595C87.5443 11.3482 87.7093 5.56167 88.8171 0Z" fill="#2497ED"/>
<path d="M59.0651 23.1662L41.5987 23.1968C40.8762 23.1981 40.2915 23.7872 40.2928 24.5126L40.3216 41.0556C40.3228 41.781 40.9096 42.368 41.6321 42.3668L59.0985 42.3362C59.821 42.3349 60.4057 41.7458 60.4044 41.0204L60.3756 24.4774C60.3744 23.752 59.7876 23.1649 59.0651 23.1662Z" fill="#2497ED"/>
<path d="M82.7543 23.1665L65.6414 23.1965C64.8018 23.198 64.1223 23.8826 64.1237 24.7257L64.1518 40.8426C64.1532 41.6857 64.8351 42.3679 65.6748 42.3665L82.7876 42.3365C83.6273 42.335 84.3068 41.6504 84.3053 40.8073L84.2773 24.6903C84.2758 23.8473 83.594 23.165 82.7543 23.1665Z" fill="#2497ED"/>
<path d="M106.235 23.1097L89.7595 23.254C88.7832 23.2626 87.9986 24.0642 88.0071 25.0445L88.1429 40.6639C88.1514 41.6441 88.9498 42.4319 89.9261 42.4233L106.402 42.2789C107.378 42.2704 108.163 41.4688 108.154 40.4885L108.019 24.8691C108.01 23.8889 107.212 23.1011 106.235 23.1097Z" fill="#2497ED"/>
<path d="M74.4267 142H62.1224C22.2749 140.154 -1.94471 109.837 1.90922 71.3195C2.05065 69.9705 2.79315 69.2842 4.13672 69.2605L142.984 69.1185C148.076 69.1185 149.667 66.74 147.757 61.983C143.892 52.4217 145.106 42.0202 151.399 30.7785C151.6 30.4198 151.871 30.106 152.196 29.8564C152.522 29.6067 152.894 29.4265 153.292 29.3268C153.689 29.2271 154.103 29.2099 154.507 29.2764C154.911 29.3429 155.297 29.4917 155.642 29.7135C163.091 34.5888 167.852 41.2865 169.926 49.8065C170.054 50.3357 170.373 50.7977 170.818 51.1004C171.264 51.403 171.804 51.5241 172.331 51.4395C180.345 50.0905 187.994 51.5342 195.277 55.7705C196.197 56.3148 196.468 57.084 196.091 58.078C191.211 70.432 182.29 76.5735 169.325 76.5025C167.51 76.5025 166.214 77.3308 165.436 78.9875C147.71 117.635 117.374 138.639 74.4267 142Z" fill="#2497ED"/>
<path d="M35.0389 46.15H18.1381C17.2399 46.15 16.5117 46.8811 16.5117 47.783V63.616C16.5117 64.5179 17.2399 65.249 18.1381 65.249H35.0389C35.9371 65.249 36.6653 64.5179 36.6653 63.616V47.783C36.6653 46.8811 35.9371 46.15 35.0389 46.15Z" fill="#2497ED"/>
<path d="M58.6763 46.1354L42.0584 46.1646C41.1016 46.1662 40.3273 46.9464 40.329 47.9071L40.3561 63.5271C40.3578 64.4878 41.1348 65.2652 42.0916 65.2635L58.7095 65.2344C59.6663 65.2327 60.4406 64.4526 60.4389 63.4919L60.4118 47.8719C60.4101 46.9112 59.6331 46.1338 58.6763 46.1354Z" fill="#2497ED"/>
<path d="M83.1081 46.17L65.3588 46.2011C64.6754 46.2023 64.1223 46.7595 64.1235 47.4457L64.1523 63.9887C64.1534 64.6749 64.7085 65.2302 65.3919 65.229L83.1412 65.1979C83.8246 65.1967 84.3777 64.6395 84.3765 63.9533L84.3478 47.4103C84.3466 46.7241 83.7915 46.1688 83.1081 46.17Z" fill="#2497ED"/>
<path d="M106.512 46.1648L89.6824 46.1353C88.8037 46.1338 88.0901 46.8477 88.0885 47.73L88.0609 63.634C88.0594 64.5163 88.7705 65.2327 89.6492 65.2343L106.479 65.2638C107.358 65.2653 108.071 64.5513 108.073 63.669L108.101 47.7651C108.102 46.8828 107.391 46.1663 106.512 46.1648Z" fill="#2497ED"/>
<path d="M130.256 46.15H113.426C112.527 46.15 111.799 46.8811 111.799 47.783V63.616C111.799 64.5179 112.527 65.249 113.426 65.249H130.256C131.154 65.249 131.882 64.5179 131.882 63.616V47.783C131.882 46.8811 131.154 46.15 130.256 46.15Z" fill="#2497ED"/>
</svg>

<svg width="198" height="142" fill="none" xmlns="http://www.w3.org/2000/svg"><path d="M88.817 0h17.396c.377.047.754.047 1.131 0l.354 17.253c.023 1.538-.731 2.296-2.263 2.272H90.797c-1.461 0-2.286-.722-2.475-2.165-.778-6.012-.613-11.798.495-17.36ZM59.065 23.166l-17.466.03a1.31 1.31 0 0 0-1.306 1.317l.029 16.543a1.31 1.31 0 0 0 1.31 1.31l17.467-.03a1.31 1.31 0 0 0 1.305-1.316l-.028-16.543a1.31 1.31 0 0 0-1.31-1.31ZM82.754 23.166l-17.113.03c-.84.002-1.519.687-1.517 1.53l.028 16.117a1.523 1.523 0 0 0 1.523 1.523l17.113-.03a1.523 1.523 0 0 0 1.517-1.529l-.028-16.117a1.523 1.523 0 0 0-1.523-1.524ZM106.235 23.11l-16.475.144c-.977.009-1.761.81-1.753 1.79l.136 15.62c.008.98.807 1.768 1.783 1.76l16.476-.145a1.771 1.771 0 0 0 1.752-1.79l-.135-15.62a1.772 1.772 0 0 0-1.784-1.76Z" fill="#2497ED"/><path d="M74.427 142H62.122C22.275 140.154-1.945 109.837 1.91 71.32c.142-1.35.884-2.036 2.228-2.06l138.847-.142c5.092 0 6.683-2.378 4.773-7.135-3.865-9.561-2.651-19.963 3.642-31.204a3 3 0 0 1 4.243-1.065c7.449 4.875 12.21 11.572 14.284 20.092.128.53.447.992.892 1.294a2.1 2.1 0 0 0 1.513.34c8.014-1.35 15.663.094 22.946 4.33.92.545 1.191 1.314.814 2.308-4.88 12.354-13.801 18.495-26.766 18.424-1.815 0-3.111.829-3.889 2.486-17.726 38.647-48.062 59.651-91.01 63.012Z" fill="#2497ED"/><path d="M35.039 46.15h-16.9a1.63 1.63 0 0 0-1.627 1.633v15.833a1.63 1.63 0 0 0 1.626 1.633h16.9a1.63 1.63 0 0 0 1.627-1.633V47.783a1.63 1.63 0 0 0-1.626-1.633ZM58.676 46.135l-16.618.03a1.736 1.736 0 0 0-1.729 1.742l.027 15.62c.002.96.779 1.738 1.736 1.736l16.617-.029a1.736 1.736 0 0 0 1.73-1.742l-.027-15.62a1.736 1.736 0 0 0-1.736-1.737ZM83.108 46.17l-17.75.031a1.24 1.24 0 0 0-1.234 1.245l.028 16.543a1.24 1.24 0 0 0 1.24 1.24l17.75-.031a1.24 1.24 0 0 0 1.234-1.245l-.028-16.543a1.24 1.24 0 0 0-1.24-1.24ZM106.512 46.165l-16.83-.03a1.594 1.594 0 0 0-1.594 1.595l-.027 15.904a1.594 1.594 0 0 0 1.588 1.6l16.83.03a1.595 1.595 0 0 0 1.594-1.595l.028-15.904a1.595 1.595 0 0 0-1.589-1.6ZM130.256 46.15h-16.83a1.63 1.63 0 0 0-1.627 1.633v15.833a1.63 1.63 0 0 0 1.627 1.633h16.83a1.63 1.63 0 0 0 1.626-1.633V47.783a1.63 1.63 0 0 0-1.626-1.633Z" fill="#2497ED"/></svg>
